X:1
T:They’ll Soon Be O’er
T:They’ll Soon Be O’er
T:Lizzie E. Sweney
T:Frances Jane (Fanny) Crosby, 1896
T:Public Domain Courtesy of the Cyber Hymnal™
C:Lizzie E. Sweney
Z:Public Domain
Z:Courtesy of the Cyber Hymnal™
%%score ( 1 2 ) ( 3 4 )
L:1/8
Q:1/4=98
M:3/4
K:Eb
V:1 treble 
V:2 treble 
V:3 bass 
V:4 bass 
V:1
 G2"^Alto and Tenor" | G>F E2 G2 | G>^F =F2 F2 | F3 A E>F | G4 G2 | G>F E2 G2 | B>A A2 G2 | %7
w: 1.~There|is a calm for|ev- ’ry storm We|meet from day to|day, A|hal- lowed peace that|dwells with- in, And|
w: 2.~There|is a friend, a|con- stant friend, Who|slum- bers not nor|sleeps, But|safe with- in His|ten- der care The|
w: 3.~There|is a morn when|we shall wake At|home be- yond the|tide, And|in our Sav- ior’s|like- ness then We|
 G3 F =AF | B4"^Trio" [GB]2 | [Ad]>[Ac] [Ad]2 [Ac]2 | [Ac]>[GB] [GB]2"^Quartet" G2 | G3 F E[CF] | %12
w: smiles the clouds a-|way. The|star of hope still|bright- ly shines, Though|wild the break- ers|
w: trust- ing soul He|keeps; His|bow of love still|spans the sky, And|points to yon- der|
w: shall be sat- is-|fied; O|hearts that yearn and|bleed and break For|joys that come no|
 [DG]4 [DG]2 | [EG]>[EF] [EF]2 [Ac]2 | [Ac]>[GB] [GB]2 [^Fe]2 | [Ge]3 [EB] [DA]>[B,D] | [B,E]4 |] %17
w: roar, And|in its beams the|words we trace, Life’s|dream will soon be|o’er.|
w: shore, While|on its beams the|words we trace, Life’s|cares will soon be|o’er.|
w: more, Look|up and read the|bless- èd words, Life’s|tears will soon be|o’er.|
V:2
 x2 | x6 | x6 | x6 | x6 | x6 | x6 | x6 | x6 | x6 | x4 G2 | G3 F E x | x6 | x6 | x6 | x6 | x4 |] %17
V:3
 B,2 | B,>A, G,2 B,2 | B,>=A, _A,2 A,2 | A,3 C C>_C | B,4 B,2 | B,>A, G,2 B,2 | _D>C C2 B,2 | %7
 B,3 =A, EE | D4 D2 | B,>B, B,2 D2 | E>E E2 G,2 | G,3 F, E,[A,C] | [G,=B,]4 [G,B,]2 | %13
 [A,C]>[A,C] [=A,C]2 [B,D]2 | [E,E]>[E,E] [E,E]2 [E,=A,]2 | [E,B,]3 [E,G,] [B,,F,]>[B,,A,] | %16
 [E,G,]4 |] %17
V:4
 x2 | x6 | x6 | x6 | x6 | x6 | x6 | x6 | x6 | x6 | x4 G,2 | G,3 F, E, x | x6 | x6 | x6 | x6 | x4 |] %17

